icon-themes/breeze_dark_svg/cmd/sc_signaturelinedialog.svg

<svg viewBox="0 0 16 16" xmlns="http://www.w3.org/2000/svg"><path d="m3 2v12h1 3v-1h-3v-5-5h5v3h3v1h1v-2l-3-3zm4 6-2 1v1l2-1v1 2h1v-4zm1 4v1 1h2l.59375-.59375.40625-.40625 1-1 1-1 1-1-2-2-1 1-1 1zm3.6875-2.3125.59375.59375-.28125.28125-1.40625 1.40625v.03125l-1.28125 1.28125-.59375-.59375 1.875-1.90625z"/></svg>

<svg viewBox="0 0 16 16" id="svg1" sodipodi:docname="sc_signature.svg" inkscape:version="1.4.3 (0d15f75042, 2025-12-25)" xmlns:inkscape="http://www.inkscape.org/namespaces/inkscape" xmlns:sodipodi="http://sodipodi.sourceforge.net/DTD/sodipodi-0.dtd" xmlns="http://www.w3.org/2000/svg" xmlns:svg="http://www.w3.org/2000/svg"><defs id="defs1"/><sodipodi:namedview id="namedview1" pagecolor="#000000" bordercolor="#000000" borderopacity=".25" inkscape:showpageshadow="2" inkscape:pageopacity="0" inkscape:pagecheckerboard="0" inkscape:deskcolor="#d1d1d1" showgrid="true" inkscape:zoom="49.364892" inkscape:cx="2.6739651" inkscape:cy="8.356141" inkscape:window-width="2560" inkscape:window-height="1354" inkscape:window-x="0" inkscape:window-y="0" inkscape:window-maximized="1" inkscape:current-layer="svg1"><inkscape:grid id="grid1" units="px" originx="0" originy="0" spacingx="1" spacingy="1" empcolor="#0099e5" empopacity=".30196078" color="#0099e5" opacity=".14901961" empspacing="5" enabled="true" visible="true"/></sodipodi:namedview>/><path d="M3 2V14H4 7V13H4V8 3h5v3h3v1h1V5L10 2zM7 8 5 9v1L7 9v1 2H8V8zm1 4v1 1h2l.59375-.59375L11 13l1-1 1-1 1-1-2-2-1 1-1 1zm3.6875-2.3125.59375.59375L12 10.5625l-1.40625 1.40625V12L9.3125 13.28125l-.59375-.59375 1.875-1.90625z" id="path1-5" style="fill:#f0f1f2;fill-opacity:1;stroke:none;stroke-opacity:1"/></svg>
